archdroid-icon-theme/Archdroid-Cyan/apps/scalable/libreoffice-math.svg

<svg fill="#00BCD4" height="48" viewBox="0 0 48 48" width="48" xmlns="http://www.w3.org/2000/svg"><path d="m12 4c-2.21 0-3.980469 1.79-3.980469 4l-.019531 32c0 2.21 1.770469 4 3.980469 4h24.019531c2.21 0 4-1.79 4-4v-24l-12-12zm14 3 11 11h-11zm-3.888672 16.78125h.158203 1.804688 9.990234v1.5h-10.55664l-4.794922 12.71875h-1.455078l-2.421875-6.132812h-1.835938v-1.523438h3.203125l1.591797 4.335938.175781.810546h.058594l.185547-.810546zm2.929688 3.652344h2.216797l2.216796 3.896484 2.246094-3.896484h2.246094l-3.427734 5.224609 3.52539 5.341797h-2.207031l-2.34375-3.994141-2.34375 3.994141h-2.226563l3.525391-5.341797z" fill="#00a50f"/></svg>

<svg fill="#00BCD4" height="48" version="1.1" viewBox="0 0 48 48" width="48" xmlns="http://www.w3.org/2000/svg"><path d="M12 4C9.79 4 8.019531 5.79 8.019531 8L8 40C8 42.21 9.770469 44 11.980469 44L36 44C38.21 44 40 42.21 40 40L40 16 28 4 12 4zM26 7L37 18 26 18 26 7zM22.111328 23.78125L22.269531 23.78125 24.074219 23.78125 34.064453 23.78125 34.064453 25.28125 23.507813 25.28125 18.712891 38 17.257813 38 14.835938 31.867188 13 31.867188 13 30.34375 16.203125 30.34375 17.794922 34.679688 17.970703 35.490234 18.029297 35.490234 18.214844 34.679688 22.111328 23.78125zM25.041016 27.433594L27.257813 27.433594 29.474609 31.330078 31.720703 27.433594 33.966797 27.433594 30.539063 32.658203 34.064453 38 31.857422 38 29.513672 34.005859 27.169922 38 24.943359 38 28.46875 32.658203 25.041016 27.433594z" fill="#00a50f"/></svg>
